16x16/apps/lazpaint.svg

<svg xmlns="http://www.w3.org/2000/svg" width="16" height="16" version="1">
 <path style="fill:#b09a7c" d="m8 0.00012314c-4.4443 0-7.9999 3.5556-7.9999 8 0.00001084 4.4439 3.5556 7.9999 7.9999 7.9999 0.71113 0 1.3333-0.62221 1.3333-1.3333 0-0.35555-0.088885-0.62221-0.35555-0.88885-0.17778-0.26666-0.35555-0.53333-0.35555-0.88886 0-0.71113 0.62227-1.3333 1.3333-1.3333h1.6c2.4886 0 4.4443-1.9557 4.4443-4.4443 0-3.9117-3.556-7.1117-8-7.1117z"/>
 <path style="fill:#f3c72f" d="m2.5 8.0001c-0.8 0-1.5-0.6998-1.5-1.5 0-0.8003 0.7-1.5 1.5-1.5s1.5 0.6997 1.5 1.5c0 0.8002-0.7 1.5-1.5 1.5z"/>
 <path fill="#327cc4" d="m5.5 5c-0.8 0-1.5-0.7-1.5-1.5s0.7-1.5 1.5-1.5 1.5 0.7 1.5 1.5-0.7 1.5-1.5 1.5z"/>
 <path style="fill:#0e7d43" d="m9.5 5c-0.8 0-1.5-0.7-1.5-1.5s0.7-1.5 1.5-1.5 1.5 0.7 1.5 1.5-0.7 1.5-1.5 1.5z"/>
 <path fill="#d94d4d" d="m12.5 8.0001c-0.8 0-1.5-0.7-1.5-1.5s0.7-1.5 1.5-1.5 1.5 0.7 1.5 1.5-0.7 1.5-1.5 1.5z"/>
 <path style="fill:#783e26" d="M 4.8405236,12.500874 C 3.7095126,11.344025 5.5035256,9.1183966 6.6302515,8.1789861 7.7891287,7.2127729 11.69771,3.6049585 11.951204,3.3412543 12.204689,3.0775627 12.51773,2.867553 12.829187,3.1007238 13.132509,3.343461 12.981808,3.6791393 12.763773,3.9702723 12.54573,4.2614243 9.6535116,8.6560134 8.9020787,9.9376403 8.1714921,11.1837 6.2599489,13.318354 4.8405236,12.500874 Z"/>
 <path style="fill:#777777" d="m 3.3651252,14.338021 c -0.1762878,-0.36881 -0.3037052,-0.328925 -0.24874,-0.656396 0.037911,-0.225862 1.5858367,-2.182499 1.5858367,-2.182499 0.2483954,-0.09918 0.5898717,0.01979 0.8601389,0.243262 0.2839813,0.207266 0.4759361,0.502863 0.4259206,0.75621 0,0 -1.6786851,1.855016 -1.9015116,1.937169 -0.3230744,0.119112 -0.3086379,-0.0086 -0.7216446,-0.09775 z"/>
 <path style="fill:#62473c" d="m 0,14.460975 c 0.81425784,1.470058 2.2503922,1.862453 3.2881806,1.281987 0.8064566,-0.451077 0.9589291,-1.191721 0.568984,-1.703281 C 3.4703305,13.532204 3.0093826,13.487467 2.5515815,13.638845 1.617874,13.947556 0.96299409,15.224615 0,14.460975 Z"/>
</svg>

<svg xmlns="http://www.w3.org/2000/svg" width="16" height="16" version="1"><path style="fill:#b09a7c" d="M8 0C3.556 0 0 3.556 0 8s3.556 8 8 8c.711 0 1.333-.622 1.333-1.333 0-.356-.089-.622-.355-.89-.178-.266-.356-.532-.356-.888 0-.711.622-1.333 1.334-1.333h1.6A4.401 4.401 0 0 0 16 7.11C16 3.2 12.444 0 8 0z"/><path style="fill:#f3c72f" d="M2.5 8C1.7 8 1 7.3 1 6.5S1.7 5 2.5 5 4 5.7 4 6.5 3.3 8 2.5 8z"/><path fill="#327cc4" d="M5.5 5C4.7 5 4 4.3 4 3.5S4.7 2 5.5 2 7 2.7 7 3.5 6.3 5 5.5 5z"/><path style="fill:#0e7d43" d="M9.5 5C8.7 5 8 4.3 8 3.5S8.7 2 9.5 2s1.5.7 1.5 1.5S10.3 5 9.5 5z"/><path fill="#d94d4d" d="M12.5 8c-.8 0-1.5-.7-1.5-1.5S11.7 5 12.5 5s1.5.7 1.5 1.5S13.3 8 12.5 8z"/><path style="fill:#783e26" d="M4.84 12.5c-1.13-1.156.664-3.382 1.79-4.321 1.16-.966 5.068-4.574 5.321-4.838.254-.263.567-.473.878-.24.304.242.153.578-.065.87-.218.29-3.11 4.685-3.862 5.967-.73 1.246-2.642 3.38-4.061 2.563z"/><path style="fill:#777" d="M3.365 14.338c-.176-.369-.304-.329-.249-.656.038-.226 1.586-2.183 1.586-2.183.249-.1.59.02.86.243.284.208.476.503.426.757 0 0-1.678 1.855-1.901 1.937-.323.119-.309-.009-.722-.098z"/><path style="fill:#62473c" d="M0 14.461c.814 1.47 2.25 1.862 3.288 1.282.807-.451.96-1.192.57-1.703-.388-.508-.849-.553-1.306-.401-.934.309-1.589 1.586-2.552.822z"/></svg>
